X: 26662
T: Midnight Fairies
R: jig
M: 6/8
K: Adorian
A3 ABc|E2D DEG|A3 ABd|egg BAG|
A3 ABc|E2D DEG|A2E G2E|1 D3 D3:|2 D3 DEG||
A2A Bcd|e2f g2e|aaa g2e|d2B BAG|
A2A Bcd|e2f g2e|afe def|e3 efg|
aaa g2e|d2d efg|a2a g2e|d2B BAG|
A3 ABc|egg BAG|BAE G2E|D3 D3||

